Newaita-dark/actions/32/media-playback-stop.svg

<svg height="32" viewBox="0 0 32 32" width="32" xmlns="http://www.w3.org/2000/svg"><path d="m5.292969 4.21875h21.167969c.730468 0 1.324218.59375 1.324218 1.324219v21.167969c0 .730468-.59375 1.324218-1.324218 1.324218h-21.167969c-.730469 0-1.324219-.59375-1.324219-1.324218v-21.167969c0-.730469.59375-1.324219 1.324219-1.324219zm0 0" fill="#e0e0e0"/></svg>

<svg xmlns="http://www.w3.org/2000/svg" xmlns:xlink="http://www.w3.org/1999/xlink" width="32px" height="32px" viewBox="0 0 32 32" version="1.1">
<g id="surface1">
     <defs>
  <style id="current-color-scheme" type="text/css">
   .ColorScheme-Text { color:#eeeeee; } .ColorScheme-Highlight { color:#424242; }
  </style>
 </defs>
<path style="fill:currentColor" class="ColorScheme-Text" d="M 5.292969 4.21875 L 26.460938 4.21875 C 27.191406 4.21875 27.785156 4.8125 27.785156 5.542969 L 27.785156 26.710938 C 27.785156 27.441406 27.191406 28.035156 26.460938 28.035156 L 5.292969 28.035156 C 4.5625 28.035156 3.96875 27.441406 3.96875 26.710938 L 3.96875 5.542969 C 3.96875 4.8125 4.5625 4.21875 5.292969 4.21875 Z M 5.292969 4.21875 "/>
</g>
</svg>
